X: 1
T: Blue Spring Shuffle: Paul Chambers' intro chorus
M: 4/4
L: 1/4
V: 1 clef=bass octave=-1
K: F
| z7 G/2 |
|| F/2 F/2 A, D C | B, B =B, G         | C        B, A, G   | F B A F/2 A/2 |
| B/2 B/2 A _A G | F B, =B, G         | F        A B _A    | A _A, D _A |
| G E' F' _E'    | E' G' E' C'/2 E'/2 | F'/2 A,/2 C =B, A, | G, B, C E  |
|| F2 z2 |

